X: 104
T: Missa Ave Maria (1596) First Section Sanctus
C: Giovanni Perluigi da Palestrina
L: 1/4
M: 4/2
N: Derived from Sanctus_06_a.krn
Q: "Sanctus"
V: 1 clef=treble
V: 2 clef=treble
V: 3 clef=treble
V: 4 clef=treble-8
V: 5 clef=treble-8
V: 6 clef=bass
K: F
[V:1] B8- | 
[V:2] z4B,4- | 
[V:3] B,6C2 | 
[V:4] z8 | 
[V:5] z8 | 
[V:6] z8 | 
[V:1] B4A4- | 
[V:2] B,2C2D2E2 | 
[V:3] D2E2F2C2 | 
[V:4] z8 | 
[V:5] z8 | 
[V:6] z8 | 
[V:1] A4A4 | 
[V:2] F2C2D2E2 | 
[V:3] D2E2F2C2 | 
[V:4] z8 | 
[V:5] z8 | 
[V:6] z8 | 
[V:1] A4B4 | 
[V:2] F2>E2D2B,C | 
[V:3] D2>C2B,A,G,A, | 
[V:4] z8 | 
[V:5] z8 | 
[V:6] z8 | 
[V:1] F4A4 | 
[V:2] DE2<F2EDC | 
[V:3] B,C2<D2EF2- | 
[V:4] z8 | 
[V:5] z8 | 
[V:6] z8 | 
[V:1] G4B3c | 
[V:2] B,2C2D4 | 
[V:3] F2E2F4 | 
[V:4] z4B4- | 
[V:5] z8 | 
[V:6] z8 | 
[V:1] d8 | 
[V:2] F6G2 | 
[V:3] z4F4- | 
[V:4] B2c2d2e2 | 
[V:5] z8 | 
[V:6] z8 | 
[V:1] c8 | 
[V:2] A2B2c4- | 
[V:3] F2G2A2B2 | 
[V:4] f6ed | 
[V:5] z8 | 
[V:6] F,6G,2 | 
[V:1] z4z2c2 | 
[V:2] c2BAG2A2 | 
[V:3] c8 | 
[V:4] c2d2e2f2- | 
[V:5] z8 | 
[V:6] A,2B,2C2A,2 | 
[V:1] d2e2c2f2- | 
[V:2] G4FGAF | 
[V:3] B2G2A3B | 
[V:4] f2e2f4 | 
[V:5] z8 | 
[V:6] B,2C2F,4 | 
[V:1] f2e2d2f2- | 
[V:2] G2>A2B4 | 
[V:3] c4F2D2- | 
[V:4] c4d4 | 
[V:5] z4B4- | 
[V:6] z4B,,4- | 
[V:1] f2e2d4 | 
[V:2] F6G2 | 
[V:3] D2E2F4- | 
[V:4] z4F4- | 
[V:5] B4A4- | 
[V:6] B,,2C,2D,2E,2 | 
[V:1] c4A4- | 
[V:2] A2B2c4 | 
[V:3] F8 | 
[V:4] F2G2A2B2 | 
[V:5] A4-A4- | 
[V:6] F,6G,2 | 
[V:1] A2B2c2d2- | 
[V:2] A4z2A2- | 
[V:3] E4A4- | 
[V:4] c2d2e2f2 | 
[V:5] A4A4- | 
[V:6] A,4A,,4 | 
[V:1] d2^c2d2D2- | 
[V:2] AGE2G2F2- | 
[V:3] A4z4 | 
[V:4] e4d4 | 
[V:5] A4B4 | 
[V:6] z4z2B,,2- | 
[V:1] D2E2F2G2 | 
[V:2] F2E2D2CB, | 
[V:3] z8 | 
[V:4] f8 | 
[V:5] F8- | 
[V:6] B,,2C,2D,2E,2 | 
[V:1] A2B2c3B | 
[V:2] A,4A4- | 
[V:3] C6D2 | 
[V:4] f4e4 | 
[V:5] F4A4- | 
[V:6] F,4z4 | 
[V:1] AGc4=B2 | 
[V:2] A4z2D2 | 
[V:3] E2F2G4- | 
[V:4] c4d4 | 
[V:5] A4G4 | 
[V:6] z8 | 
[V:1] c4d3e | 
[V:2] _E2E2D2B,2 | 
[V:3] G4z4 | 
[V:4] c4f3e | 
[V:5] G4B4- | 
[V:6] C,4B,,4- | 
[V:1] f8 | 
[V:2] F6F2 | 
[V:3] B6A2 | 
[V:4] d4c3B | 
[V:5] B4c4- | 
[V:6] B,,4F,4- | 
[V:1] z2f4e2 | 
[V:2] A2>B2c4 | 
[V:3] F2A2G3F | 
[V:4] A2F2G4 | 
[V:5] c8 | 
[V:6] F,4C,4- | 
[V:1] c2e2d2GA | 
[V:2] G4z2G2- | 
[V:3] EDC2D4 | 
[V:4] z2c4B2 | 
[V:5] z8 | 
[V:6] C,4G,4 | 
[V:1] Bcd4cB | 
[V:2] G2F2D2F2- | 
[V:3] z2DEFGA2- | 
[V:4] G2B4A2 | 
[V:5] z8 | 
[V:6] z8 | 
[V:1] ABc4=B2 | 
[V:2] FEC2D2G2- | 
[V:3] A2E2G3F | 
[V:4] F2A2G4 | 
[V:5] z8 | 
[V:6] z8 | 
[V:1] c4z4 | 
[V:2] G2^F2G4 | 
[V:3] E2C2D3C/ D/ | 
[V:4] A4G2g2- | 
[V:5] z8 | 
[V:6] z2C4B,2 | 
[V:1] z2d4c2 | 
[V:2] z4z2A2- | 
[V:3] _E2DCB,2C2 | 
[V:4] g2f2d2f2- | 
[V:5] z8 | 
[V:6] G,2B,4A,2 | 
[V:1] A2c4B2 | 
[V:2] A2E2G2G2- | 
[V:3] C4z4 | 
[V:4] fec2d2_e2- | 
[V:5] z8 | 
[V:6] F,2A,2G,4 | 
[V:1] G2B2A3G/ F/ | 
[V:2] GFD2E2F2- | 
[V:3] z8 | 
[V:4] edB2c2d2 | 
[V:5] z8 | 
[V:6] z8 | 
[V:1] G4F4- | 
[V:2] F2E2F2D2 | 
[V:3] z2c4B2 | 
[V:4] B2c2A2B2 | 
[V:5] z8 | 
[V:6] z8 | 
[V:1] F8 | 
[V:2] C2D4CB, | 
[V:3] A2B2F2A2- | 
[V:4] F2Bcdef2- | 
[V:5] z8 | 
[V:6] z2B,4A,2 | 
[V:1] z2c4B2 | 
[V:2] A,4z2B,2- | 
[V:3] AGEF2<G2F | 
[V:4] fec2d4 | 
[V:5] z8 | 
[V:6] F,2A,2G,4 | 
[V:1] G2B2A2c2 | 
[V:2] B,2G,2A,2A2- | 
[V:3] _ED/ C/D2>C2C2- | 
[V:4] B4c4 | 
[V:5] z4f4- | 
[V:6] G,4F,3E, | 
[V:1] d4edef | 
[V:2] A2D2G2G2 | 
[V:3] C2=B,2C4 | 
[V:4] F4z2c2 | 
[V:5] f4e4- | 
[V:6] D,4C,4- | 
[V:1] gfedc4- | 
[V:2] G4z2A2- | 
[V:3] z2C2C2C2- | 
[V:4] c2c2A3B | 
[V:5] e4-e4- | 
[V:6] C,4z4 | 
[V:1] c4z2c2 | 
[V:2] A2G2E2G2- | 
[V:3] CDEFG2CD | 
[V:4] c8 | 
[V:5] e4e4- | 
[V:6] C,6C,2 | 
[V:1] c2c2A3B | 
[V:2] GFEDCB,A,2 | 
[V:3] EFG2A2F2 | 
[V:4] c4z2c2- | 
[V:5] e4f4 | 
[V:6] C,4F,4 | 
[V:1] c4c4 | 
[V:2] G,2C4G,2 | 
[V:3] G2F3E/ D/E2 | 
[V:4] cBA2G4 | 
[V:5] c8- | 
[V:6] E,2F,2C,4 | 
[V:1] A2f2e2c2 | 
[V:2] A,2C2>D2EF | 
[V:3] F2A4G2 | 
[V:4] F4c4 | 
[V:5] c4e4- | 
[V:6] F,4z4 | 
[V:1] e2>f2g2GA | 
[V:2] G4z2G2- | 
[V:3] E2G4D2 | 
[V:4] c4G4 | 
[V:5] e4d4 | 
[V:6] z2C4B,2 | 
[V:1] Bcd4cB | 
[V:2] G2F2D2F2- | 
[V:3] z2D2B,2C2 | 
[V:4] z8 | 
[V:5] d4f4- | 
[V:6] G,2B,4A,2 | 
[V:1] A2c4=B2 | 
[V:2] F2C2D2D2 | 
[V:3] C4z2D2 | 
[V:4] z8 | 
[V:5] f4g4- | 
[V:6] F,2A,2G,4 | 
[V:1] c2_e4d2 | 
[V:2] C4G,4 | 
[V:3] _E2C2D4- | 
[V:4] z2c4B2 | 
[V:5] g8 | 
[V:6] C,4z2G,2- | 
[V:1] B2d2_e2e2- | 
[V:2] z2G2>G2_E2 | 
[V:3] D4G,2G2- | 
[V:4] G2B4c2 | 
[V:5] g8- | 
[V:6] G,2G,2_E,2C,2- | 
[V:1] edc4=BA | 
[V:2] C4D2G,2 | 
[V:3] GF_E2D4- | 
[V:4] G8 | 
[V:5] g4-g4- | 
[V:6] C,2C,2G,4 | 
[V:1] =B4c4
[V:2] D4E4
[V:3] D4C4
[V:4] G4G4
[V:5] g8
[V:6] G,4C,4

